X:4
T:253. The Peacock's Feather
S:Mike Rafferty
Z:Lesl
M:4/4
L:1/8
K:D
DE|:FEDF ~A3B|defd B2ef|g2fd efdB|AGFA E2DE|
FEDF ~A3B|defd B2ef|g2fd efdB|1 Adfe d2DE:|2 Adfe d2fg||
|:afge fdec|defd B2ef|~g2fd efdB|AGFA E2DE|
[1 FEED ~A3B|defd B2ef|g2fd efdB|Adfe d2fg:|
[2 F~E3 A~F3|defd B2ef|g2fd efdB|Adfe d2||

